Origami/64x64/apps/killbots.svg

<svg width="64" height="64" version="1" xmlns="http://www.w3.org/2000/svg">
 <rect x="4" y="5" width="56" height="56" rx="3" ry="3" style="opacity:.2"/>
 <rect x="4" y="4" width="56" height="56" rx="3" ry="3" style="fill:#7d6328"/>
 <path d="m30 4v26h-26v4h26v26h4v-26h26v-4h-26v-26h-4z" style="opacity:.1"/>
 <circle cx="47" cy="48" r="7" style="opacity:.2"/>
 <circle cx="47" cy="47" r="7" style="fill:#ffffff"/>
 <path d="m7 4c-1.662 0-3 1.338-3 3v1c0-1.662 1.338-3 3-3h50c1.662 0 3 1.338 3 3v-1c0-1.662-1.338-3-3-3h-50z" style="fill:#ffffff;opacity:.1"/>
</svg>

<svg xmlns="http://www.w3.org/2000/svg" width="64" height="64" version="1">
 <rect style="opacity:0.2" width="56" height="56" x="4" y="5" rx="3" ry="3"/>
 <rect style="fill:#7d6328" width="56" height="56" x="4" y="4" rx="3" ry="3"/>
 <path style="opacity:0.1" d="m 30,4 0,26 -26,0 0,4 26,0 0,26 4,0 0,-26 26,0 0,-4 -26,0 0,-26 -4,0 z"/>
 <circle style="opacity:0.2" cx="47" cy="48" r="7"/>
 <circle style="fill:#ffffff" cx="47" cy="47" r="7"/>
 <path style="opacity:0.1;fill:#ffffff" d="M 7 4 C 5.338 4 4 5.338 4 7 L 4 8 C 4 6.338 5.338 5 7 5 L 57 5 C 58.662 5 60 6.338 60 8 L 60 7 C 60 5.338 58.662 4 57 4 L 7 4 z"/>
</svg>
